extension-intellij/src/main/resources/portal/icon.svg

<?xml version="1.0" encoding="UTF-8" standalone="no"?>
<svg
   sodipodi:docname="icon.svg"
   inkscape:version="1.3.2 (091e20e, 2023-11-25)"
   id="svg8"
   version="1.1"
   viewBox="0 0 3.4395832 3.4395834"
   height="13"
   width="13"
   inkscape:export-filename="/home/chris/icon.png"
   inkscape:export-xdpi="96"
   inkscape:export-ydpi="96"
   xmlns:inkscape="http://www.inkscape.org/namespaces/inkscape"
   xmlns:sodipodi="http://sodipodi.sourceforge.net/DTD/sodipodi-0.dtd"
   xmlns="http://www.w3.org/2000/svg"
   xmlns:svg="http://www.w3.org/2000/svg"
   xmlns:rdf="http://www.w3.org/1999/02/22-rdf-syntax-ns#"
   xmlns:cc="http://creativecommons.org/ns#"
   xmlns:dc="http://purl.org/dc/elements/1.1/">
  <defs
     id="defs2">
    <clipPath
       clipPathUnits="userSpaceOnUse"
       id="clipPath843">
      <rect
         style="fill:#88c0d0;fill-opacity:1;stroke:none;stroke-width:0.778653"
         id="rect847"
         width="102.85884"
         height="375.90518"
         x="44.359974"
         y="-187.95259"
         ry="0"
         transform="rotate(45)" />
    </clipPath>
  </defs>
  <sodipodi:namedview
     units="px"
     inkscape:window-maximized="0"
     inkscape:window-y="38"
     inkscape:window-x="80"
     inkscape:window-height="1051"
     inkscape:window-width="1648"
     showgrid="false"
     inkscape:current-layer="layer2"
     inkscape:document-units="px"
     inkscape:cy="2.8125"
     inkscape:cx="4.296875"
     inkscape:zoom="32"
     inkscape:pageshadow="2"
     inkscape:pageopacity="0.0"
     borderopacity="1.0"
     bordercolor="#666666"
     pagecolor="#ffffff"
     id="base"
     inkscape:document-rotation="0"
     inkscape:pagecheckerboard="0"
     width="13px"
     inkscape:showpageshadow="2"
     inkscape:deskcolor="#d1d1d1" />
  <metadata
     id="metadata5">
    <rdf:RDF>
      <cc:Work
         rdf:about="">
        <dc:format>image/svg+xml</dc:format>
        <dc:type
           rdf:resource="http://purl.org/dc/dcmitype/StillImage" />
      </cc:Work>
    </rdf:RDF>
  </metadata>
  <g
     inkscape:groupmode="layer"
     id="layer2"
     inkscape:label="Layer 2">
    <path
       style="fill:#ffffff;stroke-width:0.264583"
       d="M 1.1246082,0.4509175 3.0726806,0.53640136 3.0478759,2.0660237 1.0562663,3.3021239 0.52399901,3.3031575 0.5040986,1.070999 Z"
       id="path1"
       sodipodi:nodetypes="ccccccc" />
  </g>
  <g
     id="layer1"
     inkscape:groupmode="layer"
     inkscape:label="Layer 1">
    <path
       id="path273"
       style="display:inline;fill:#2a2e39;fill-opacity:1;stroke:none;stroke-width:3;stroke-linecap:round;stroke-linejoin:round"
       d="M 5.4375,0.515625 4.703125,1.25 3.96875,1.984375 h 1.8144531 c 1.0892979,0 1.9513341,0.014564 2.15625,0.035156 1.2768188,0.1283073 2.2555539,0.7877909 2.6386719,1.78125 0.195172,0.5060988 0.234057,0.7340947 0.232422,1.3710938 -0.0014,0.54935 -0.007,0.5964847 -0.101563,0.9472656 C 10.505365,6.8741669 10.19153,7.3679094 9.6601562,7.7695312 9.2721881,8.0627646 8.8531913,8.2540871 8.328125,8.3769531 c -0.2058047,0.048159 -0.4800268,0.058148 -2.2558594,0.074219 -1.8854024,0.017062 -2.0261336,0.02221 -2.078125,0.074219 -0.052141,0.052159 -0.0563,0.1827388 -0.064453,2.0078119 l -0.00977,1.951172 H 5.7402344 7.5625 L 10.023438,10.023438 12.484375,7.5625 V 4.2929688 1.0234375 L 12.396484,0.85546875 C 12.326046,0.72063471 12.279365,0.67395372 12.144531,0.60351562 L 11.976562,0.515625 H 8.7070312 Z M 2.09375,3.859375 1.3046875,4.6484375 0.515625,5.4375 v 3.2695312 3.2695308 l 0.0878906,0.167969 c 0.0704381,0.134834 0.11711909,0.181515 0.25195313,0.251953 0.16298647,0.08511 0.17826947,0.08789 0.69335937,0.08789 h 0.5273438 l 0.00781,-2.335937 C 2.0932128,7.8615105 2.0951702,7.8092599 2.1601562,7.6191406 2.2944523,7.2262528 2.4992815,6.9839694 2.8183594,6.8378906 3.1553722,6.683601 3.3052616,6.6750028 5.5820312,6.6738281 6.8836971,6.6731564 7.7596663,6.6602751 7.8632812,6.640625 8.1101712,6.5938032 8.3989238,6.4467796 8.5585938,6.2871094 8.9827928,5.8629105 9.0828418,5.0736545 8.78125,4.5195312 8.6714737,4.3178361 8.4629493,4.1003101 8.3007812,4.0175781 7.9880957,3.8580598 8.0233087,3.859375 4.9550781,3.859375 Z"
       transform="scale(0.26458333)" />
  </g>
</svg>

<?xml version="1.0" encoding="UTF-8" standalone="no"?>
<svg
   sodipodi:docname="icon.svg"
   inkscape:version="1.3 (0e150ed6c4, 2023-07-21)"
   id="svg8"
   version="1.1"
   viewBox="0 0 3.4395832 3.4395834"
   height="13"
   width="13"
   inkscape:export-filename="/home/chris/icon.png"
   inkscape:export-xdpi="96"
   inkscape:export-ydpi="96"
   xmlns:inkscape="http://www.inkscape.org/namespaces/inkscape"
   xmlns:sodipodi="http://sodipodi.sourceforge.net/DTD/sodipodi-0.dtd"
   xmlns="http://www.w3.org/2000/svg"
   xmlns:svg="http://www.w3.org/2000/svg"
   xmlns:rdf="http://www.w3.org/1999/02/22-rdf-syntax-ns#"
   xmlns:cc="http://creativecommons.org/ns#"
   xmlns:dc="http://purl.org/dc/elements/1.1/">
  <defs
     id="defs2">
    <clipPath
       clipPathUnits="userSpaceOnUse"
       id="clipPath843">
      <rect
         style="fill:#88c0d0;fill-opacity:1;stroke:none;stroke-width:0.778653"
         id="rect847"
         width="102.85884"
         height="375.90518"
         x="44.359974"
         y="-187.95259"
         ry="0"
         transform="rotate(45)" />
    </clipPath>
  </defs>
  <sodipodi:namedview
     units="px"
     inkscape:window-maximized="0"
     inkscape:window-y="80"
     inkscape:window-x="3014"
     inkscape:window-height="1061"
     inkscape:window-width="1648"
     showgrid="false"
     inkscape:current-layer="layer1"
     inkscape:document-units="px"
     inkscape:cy="11.328125"
     inkscape:cx="6.421875"
     inkscape:zoom="32"
     inkscape:pageshadow="2"
     inkscape:pageopacity="0.0"
     borderopacity="1.0"
     bordercolor="#666666"
     pagecolor="#ffffff"
     id="base"
     inkscape:document-rotation="0"
     inkscape:pagecheckerboard="0"
     width="13px"
     inkscape:showpageshadow="2"
     inkscape:deskcolor="#d1d1d1" />
  <metadata
     id="metadata5">
    <rdf:RDF>
      <cc:Work
         rdf:about="">
        <dc:format>image/svg+xml</dc:format>
        <dc:type
           rdf:resource="http://purl.org/dc/dcmitype/StillImage" />
      </cc:Work>
    </rdf:RDF>
  </metadata>
  <g
     id="layer1"
     inkscape:groupmode="layer"
     inkscape:label="Layer 1">
    <path
       id="path273"
       style="fill:#2a2e39;stroke:none;stroke-width:3;stroke-linecap:round;stroke-linejoin:round;fill-opacity:1"
       d="M 5.4375 0.515625 L 4.703125 1.25 L 3.96875 1.984375 L 5.7832031 1.984375 C 6.872501 1.984375 7.7345372 1.9989393 7.9394531 2.0195312 C 9.2162719 2.1478385 10.195007 2.8073221 10.578125 3.8007812 C 10.773297 4.30688 10.812182 4.5348759 10.810547 5.171875 C 10.809138 5.721225 10.803584 5.7683597 10.708984 6.1191406 C 10.505365 6.8741669 10.19153 7.3679094 9.6601562 7.7695312 C 9.2721881 8.0627646 8.8531913 8.2540871 8.328125 8.3769531 C 8.1223203 8.4251118 7.8480982 8.4351016 6.0722656 8.4511719 C 4.1868632 8.4682334 4.046132 8.4733818 3.9941406 8.5253906 C 3.9419995 8.5775493 3.9378405 8.7081294 3.9296875 10.533203 L 3.9199219 12.484375 L 5.7402344 12.484375 L 7.5625 12.484375 L 10.023438 10.023438 L 12.484375 7.5625 L 12.484375 4.2929688 L 12.484375 1.0234375 L 12.396484 0.85546875 C 12.326046 0.72063471 12.279365 0.67395372 12.144531 0.60351562 L 11.976562 0.515625 L 8.7070312 0.515625 L 5.4375 0.515625 z M 2.09375 3.859375 L 1.3046875 4.6484375 L 0.515625 5.4375 L 0.515625 8.7070312 L 0.515625 11.976562 L 0.60351562 12.144531 C 0.67395376 12.279365 0.72063471 12.326046 0.85546875 12.396484 C 1.0184552 12.481594 1.0337382 12.484375 1.5488281 12.484375 L 2.0761719 12.484375 L 2.0839844 10.148438 C 2.0932128 7.8615105 2.0951702 7.8092599 2.1601562 7.6191406 C 2.2944523 7.2262528 2.4992815 6.9839694 2.8183594 6.8378906 C 3.1553722 6.683601 3.3052616 6.6750028 5.5820312 6.6738281 C 6.8836971 6.6731564 7.7596663 6.6602751 7.8632812 6.640625 C 8.1101712 6.5938032 8.3989238 6.4467796 8.5585938 6.2871094 C 8.9827928 5.8629105 9.0828418 5.0736545 8.78125 4.5195312 C 8.6714737 4.3178361 8.4629493 4.1003101 8.3007812 4.0175781 C 7.9880957 3.8580598 8.0233087 3.859375 4.9550781 3.859375 L 2.09375 3.859375 z "
       transform="scale(0.26458333)" />
  </g>
</svg>
